X: 36092
T: Schaeffer's
R: jig
M: 6/8
K: Gmajor
|:D|G2 A B2 c|edB GBd|g2 g f2 g|edB GAB|
c2 e edc|B2 d d2 d|fed B2 d|BAA ABA|
G2 A B2 c|edB GBd|g2g f2 g|edB GAB|
c2 e edc|B2 d d2 d|fed cBA|G3 B2 d|
g2 g f2 g|edB GBd|gfg f2 g|e3e2f|
g2 g f2 g|edB G2A|B2 e edB|A3A2 d|
g2 g f2 g|edB GBd|g2 g f2 g|e3e2 f|
g2 g f2 g|edB G2 A|Bee edB|G3G2:|

